X:131
%%topmargin 3cm
T:Ben Lomond
C:
O:Scotland
B:Keith Norman MacDonald : "The Skye collection of the best reels & strathspeys extant" : 1887
Z:Ralph Palmer
R:Strathspey
M:C
L:1/8
K:D
B | A>FA>B {/B}A>FA>{/c}d | TB>AB>d e/2e/2e {/f}e2 | {/c}d<ff>d e>B{/c}d>A | B<{/c}dA>F D/2D/2D {FE}D :|
(f/2g/2) | {/^g}a>f{/c}d>f {/g}a>f{/c}d>f | {gf}e>de>f e/2e/2e e(f/2g/2) | {/^g}a>f{/c}d>f {/g}af | {gf}e<de>f d/2d/2d (df/2g/2) |
{/^g}a>f{/c}d>f {/g}a<fd>f | {/f}e<de>f e/2e/2e {/f}e2 | d<ff>d {gf}e>Bd>A | B<{/c}dA>F D/2D/2D {FE}D |]
